contributed-vectors/mbank.svg

<?xml version="1.0" encoding="UTF-8" standalone="no"?>
<svg
   width="100%"
   height="100%"
   viewBox="0 0 192 192"
   version="1.1"
   xml:space="preserve"
   style="fill-rule:evenodd;clip-rule:evenodd;stroke-linejoin:round;stroke-miterlimit:2;"
   id="svg16"
   sodipodi:docname="mbank.svg"
   inkscape:version="1.2 (dc2aedaf03, 2022-05-15)"
   inkscape:export-filename="mbank.png"
   inkscape:export-xdpi="96"
   inkscape:export-ydpi="96"
   xmlns:inkscape="http://www.inkscape.org/namespaces/inkscape"
   xmlns:sodipodi="http://sodipodi.sourceforge.net/DTD/sodipodi-0.dtd"
   xmlns="http://www.w3.org/2000/svg"
   xmlns:svg="http://www.w3.org/2000/svg"><defs
   id="defs20" /><sodipodi:namedview
   id="namedview18"
   pagecolor="#505050"
   bordercolor="#eeeeee"
   borderopacity="1"
   inkscape:showpageshadow="0"
   inkscape:pageopacity="0"
   inkscape:pagecheckerboard="0"
   inkscape:deskcolor="#505050"
   showgrid="false"
   inkscape:lockguides="true"
   inkscape:zoom="1.2291667"
   inkscape:cx="-17.898305"
   inkscape:cy="-127.72881"
   inkscape:window-width="1884"
   inkscape:window-height="1052"
   inkscape:window-x="36"
   inkscape:window-y="0"
   inkscape:window-maximized="1"
   inkscape:current-layer="svg16" />
    <path
   d="M 57.314285,19.499999 V 172.5 H 29.663591 C 24.054305,172.5 19.5,168.019 19.5,162.5 V 29.499999 c 0,-5.519 4.554305,-10 10.163591,-10 z"
   style="clip-rule:evenodd;fill:#ff837d;fill-rule:evenodd;stroke-width:1.00815;stroke-linejoin:round;stroke-miterlimit:2"
   id="path7441"
   sodipodi:nodetypes="ccssssc" /><rect
   x="132.05688"
   y="19.5"
   width="5.6402702"
   height="153"
   style="fill:#99bdfe;fill-opacity:1;stroke-width:0.361903"
   id="rect6632" /><rect
   x="62.954556"
   y="19.5"
   width="38.699581"
   height="153"
   style="fill:#f8c18c;fill-opacity:1;stroke-width:0.947971"
   id="rect6216" /><path
   d="M 137.69716,19.5 H 162.5 c 5.519,0 10,4.481 10,10 v 133 c 0,5.519 -4.481,10 -10,10 h -24.80284 z"
   style="fill:#98dc9a"
   id="path4"
   sodipodi:nodetypes="csssscc" /><rect
   x="57.314285"
   y="19.5"
   width="5.6402702"
   height="153"
   style="fill:#56595b;fill-opacity:1;stroke-width:0.361903"
   id="rect6" /><g
   transform="matrix(0.70598994,0,0,1,57.389271,0)"
   id="g10"
   style="fill:#ba6561;fill-opacity:1">
                <rect
   x="62.699001"
   y="19.5"
   width="43.063999"
   height="153"
   style="fill:#ba6561;fill-opacity:1"
   id="rect8" />
            </g>
<g
   style="clip-rule:evenodd;fill-rule:evenodd;stroke-linejoin:round;stroke-miterlimit:2"
   id="g7075"
   transform="translate(-6.2966098,-331.14407)"><g
     id="Layer2">
        <g
   id="background">
            <path
   d="m 62.699,19.5 v 153 H 29.5 c -5.519,0 -10,-4.481 -10,-10 v -133 c 0,-5.519 4.481,-10 10,-10 z"
   style="fill:#ff837d"
   id="path7047" />
            <path
   d="M 135.531,19.5 H 162.5 c 5.519,0 10,4.481 10,10 v 133 c 0,5.519 -4.481,10 -10,10 h -26.969 z"
   style="fill:#98dc9a"
   id="path7049" />
            <rect
   x="62.699001"
   y="19.5"
   width="43.063999"
   height="153"
   style="fill:#f9de81"
   id="rect7051" />
            <g
   transform="matrix(0.691248,0,0,1,62.4225,0)"
   id="g7055">
                <rect
   x="62.699001"
   y="19.5"
   width="43.063999"
   height="153"
   style="fill:#e85e5c"
   id="rect7053" />
            </g>
        </g>
        <path
   d="m 39.358,62.862 v 13.713 h 7.69 v 52.421 H 65.76 V 86.957 c 0,0 0.072,-10.74 10.02,-10.74 9.948,0 10.294,9.522 10.294,9.522 v 43.257 h 19.689 V 86.572 c 0,0 -0.301,-10.258 9.734,-10.258 10.034,0 10.117,9.592 10.117,9.592 v 31.529 c 0,0 -1.549,12.483 12.483,12.483 10.807,0 14.227,-3.358 14.227,-3.358 v -11.073 c 0,0 -2.251,1.77 -4.614,1.64 -3.21,-0.176 -2.871,-2.05 -2.871,-2.05 V 80.933 c 0,0 -0.291,-16.217 -18.764,-18.764 -16.841,-2.321 -24.198,8.203 -24.198,8.203 0,0 -4.856,-8.678 -20.354,-8.537 -13.914,0.127 -19.839,8.845 -19.839,8.845 l -3.281,-7.69 z"
   style="fill:#ffffff"
   id="path7058" />
    </g></g><path
   id="path8337"
   style="fill:#ffffff;fill-opacity:1;stroke-width:0.932892"
   d="M 84.878358,67.620227 C 71.898201,67.738704 66.204186,76.769463 66.204186,76.769463 L 65.672671,68.697807 46,68.578321 v 12.792824 h 6.146476 V 124.38116 H 68.639031 V 97.672965 c 0,-2.360544 -0.648685,-15.58928 11.683457,-15.58928 11.51743,0 10.594916,12.023397 10.594916,15.58928 V 124.38116 H 107.28281 V 97.672965 c 0,-2.360544 -0.64759,-15.58928 11.68455,-15.58928 11.51742,0 10.59491,12.023406 10.59491,15.58928 V 124.38116 H 146 V 91.82904 c 0,-15.122776 -8.7718,-22.410377 -19.55977,-23.897487 -15.71063,-2.165697 -23.31646,8.851934 -23.31646,8.851934 0,0 -3.78756,-9.294794 -18.245412,-9.16326 z"
   sodipodi:nodetypes="ccccccccsssccsssccsscc" /></svg>

<?xml version="1.0" encoding="UTF-8" standalone="no"?>
<!DOCTYPE svg PUBLIC "-//W3C//DTD SVG 1.1//EN" "http://www.w3.org/Graphics/SVG/1.1/DTD/svg11.dtd">
<svg width="100%" height="100%" viewBox="0 0 192 192" version="1.1" xmlns="http://www.w3.org/2000/svg" xmlns:xlink="http://www.w3.org/1999/xlink" xml:space="preserve" xmlns:serif="http://www.serif.com/" style="fill-rule:evenodd;clip-rule:evenodd;stroke-linejoin:round;stroke-miterlimit:2;">
    <g id="Layer2">
        <g id="background">
            <path d="M62.699,19.5L62.699,172.5L29.5,172.5C23.981,172.5 19.5,168.019 19.5,162.5L19.5,29.5C19.5,23.981 23.981,19.5 29.5,19.5L62.699,19.5Z" style="fill:rgb(255,131,125);"/>
            <path d="M135.531,19.5L162.5,19.5C168.019,19.5 172.5,23.981 172.5,29.5L172.5,162.5C172.5,168.019 168.019,172.5 162.5,172.5L135.531,172.5L135.531,19.5Z" style="fill:rgb(152,220,154);"/>
            <rect x="62.699" y="19.5" width="43.064" height="153" style="fill:rgb(249,222,129);"/>
            <g transform="matrix(0.691248,0,0,1,62.4225,0)">
                <rect x="62.699" y="19.5" width="43.064" height="153" style="fill:rgb(232,94,92);"/>
            </g>
        </g>
        <path d="M39.358,62.862L39.358,76.575L47.048,76.575L47.048,128.996L65.76,128.996L65.76,86.957C65.76,86.957 65.832,76.217 75.78,76.217C85.728,76.217 86.074,85.739 86.074,85.739L86.074,128.996L105.763,128.996L105.763,86.572C105.763,86.572 105.462,76.314 115.497,76.314C125.531,76.314 125.614,85.906 125.614,85.906L125.614,117.435C125.614,117.435 124.065,129.918 138.097,129.918C148.904,129.918 152.324,126.56 152.324,126.56L152.324,115.487C152.324,115.487 150.073,117.257 147.71,117.127C144.5,116.951 144.839,115.077 144.839,115.077L144.839,80.933C144.839,80.933 144.548,64.716 126.075,62.169C109.234,59.848 101.877,70.372 101.877,70.372C101.877,70.372 97.021,61.694 81.523,61.835C67.609,61.962 61.684,70.68 61.684,70.68L58.403,62.99L39.358,62.862Z" style="fill:white;"/>
    </g>
</svg>
